X:2460
T:Hopsa fr Falster
M:2/4
O:Denmark
R:Hopsa
Z:Richard Robinson 
%%TUNEURL: http://www.leeds.ac.uk/music/Info/RRTuneBk/gettune/0000091e.html
%%ID:0000091e
K:D
A2AA A2AA | B2BB B2BB | e2ee e2fe |dcBc d2z2 :|
fgfe f2d2 | e2c2 defg | fgfe f2d2 |e2c2 d2z2:|
